ARRI_LogC2Video_P3DCI_davinci3d_33.cube
LUT_3D_SIZE 33
0.000000 0.000000 0.000000
0.000259 0.000061 0.000061
0.001740 0.000122 0.000153
0.005386 0.000015 0.000122
0.011978 0.000000 0.000153
0.022354 0.000000 0.000275
0.037125 0.000000 0.000458
0.056718 0.000000 0.000702
0.078172 0.000000 0.000992
0.098726 0.000000 0.001358
0.120943 0.000000 0.001831
0.146548 0.000000 0.002502
0.175463 0.000000 0.003433
0.207507 0.000000 0.004715
0.242390 0.000000 0.006439
0.279774 0.000000 0.008698
0.319768 0.000000 0.011643
0.362341 0.000000 0.015442
0.406729 0.000000 0.020203
0.451972 0.000000 0.025956
0.496925 0.000000 0.032670
0.540291 0.000000 0.040162
0.580529 0.000000 0.048051
0.616938 0.000000 0.056046
0.652308 0.000000 0.064195
0.686870 0.000000 0.072160
0.720439 0.000000 0.079896
0.752850 0.000000 0.087373
0.783978 0.000000 0.094545
0.813657 0.000000 0.101396
0.841794 0.000000 0.107881
0.868452 0.000000 0.114015
0.893690 0.000000 0.119844
0.000671 0.001312 0.000763
0.002029 0.002182 0.000855
0.005402 0.003037 0.000610
0.011643 0.003708 0.000000
0.021485 0.003754 0.000015
0.035828 0.003113 0.000229
0.055329 0.001648 0.000549
0.077455 0.000000 0.000977
0.098497 0.000000 0.001343
0.121004 0.000000 0.001831
0.146258 0.000000 0.002487
0.174807 0.000000 0.003418
0.206638 0.000000 0.004685
0.241550 0.000000 0.006394
0.279240 0.000000 0.008667
0.319341 0.000000 0.011612
0.361456 0.000000 0.015351
0.406012 0.000000 0.020111
0.452522 0.000000 0.026032
0.499947 0.000000 0.033158
0.547173 0.000000 0.041444
0.592905 0.000000 0.050675
0.635721 0.000000 0.060365
0.674022 0.000000 0.069200
0.708675 0.000000 0.077195
0.742275 0.000000 0.084932
0.774685 0.000000 0.092409
0.805722 0.000000 0.099565
0.835264 0.000000 0.106371
0.863310 0.000000 0.112840
0.889952 0.000000 0.118975
0.915221 0.000000 0.124804
0.939208 0.000000 0.130343
0.001389 0.006271 0.002075
0.003922 0.008377 0.001480
0.009216 0.010422 0.000290
0.017975 0.012009 0.000000
0.030854 0.012833 0.000000
0.048737 0.012955 0.000000
0.070893 0.012207 0.000076
0.092988 0.010529 0.000534
0.116213 0.007874 0.001144
0.142535 0.004288 0.002014
0.171450 0.000000 0.003174
0.202869 0.000000 0.004517
0.237369 0.000000 0.006165
0.274891 0.000000 0.008377
0.315114 0.000000 0.011276
0.357641 0.000000 0.014984
0.401923 0.000000 0.019638
0.447852 0.000000 0.025391
0.495750 0.000000 0.032486
0.544747 0.000000 0.040986
0.593729 0.000000 0.050858
0.641444 0.000000 0.061692
0.686473 0.000000 0.072068
0.727291 0.000000 0.081483
0.762493 0.000000 0.089601
0.795071 0.000000 0.097108
0.826215 0.000000 0.104280
0.855894 0.000000 0.111131
0.884138 0.000000 0.117632
0.911025 0.000000 0.123842
0.936599 0.000000 0.129732
0.960937 0.000000 0.135348
0.984115 0.000000 0.140688
0.000397 0.016373 0.002670
0.004273 0.020020 0.000839
0.011536 0.023468 0.000000
0.022690 0.025940 0.000000
0.038605 0.027802 0.000000
0.059846 0.028901 0.000000
0.082765 0.029114 0.000000
0.105943 0.028336 0.000000
0.132387 0.026520 0.000336
0.162051 0.023667 0.001358
0.194385 0.019928 0.002731
0.228870 0.015427 0.004517
0.266239 0.009796 0.006897
0.306371 0.002899 0.009979
0.348974 0.000000 0.013931
0.393606 0.000000 0.018708
0.439796 0.000000 0.024308
0.487144 0.000000 0.031113
0.536110 0.000000 0.039384
0.586343 0.000000 0.049271
0.636728 0.000000 0.060609
0.686046 0.000000 0.071977
0.732921 0.000000 0.082780
0.775845 0.000000 0.092668
0.813230 0.000000 0.101289
0.845075 0.000000 0.108629
0.875212 0.000000 0.115587
0.903975 0.000000 0.122210
0.931426 0.000000 0.128542
0.957565 0.000000 0.134569
0.982223 0.000000 0.140215
1.000000 0.000000 0.145205
1.000000 0.000000 0.149874
0.000000 0.032975 0.001328
0.001541 0.038453 0.000000
0.010697 0.042786 0.000000
0.024445 0.046540 0.000000
0.043412 0.049607 0.000000
0.067384 0.051896 0.000000
0.091341 0.053269 0.000000
0.117403 0.053605 0.000000
0.147051 0.052827 0.000000
0.179873 0.050843 0.000229
0.215290 0.047776 0.001831
0.252644 0.043824 0.003952
0.292393 0.038819 0.006714
0.334768 0.032624 0.010315
0.379507 0.025269 0.014878
0.426230 0.016815 0.020584
0.474464 0.007385 0.027543
0.523659 0.000000 0.035843
0.573678 0.000000 0.045655
0.624949 0.000000 0.057221
0.676478 0.000000 0.069429
0.727077 0.000000 0.081300
0.775387 0.000000 0.092531
0.820005 0.000000 0.102800
0.859556 0.000000 0.111803
0.892699 0.000000 0.119219
0.922179 0.000000 0.125750
0.950057 0.000000 0.131914
0.976364 0.000000 0.137697
1.000000 0.000000 0.143114
1.000000 0.000000 0.148196
1.000000 0.000000 0.152926
1.000000 0.000000 0.157321
0.000000 0.057206 0.000000
0.000000 0.063432 0.000000
0.005493 0.068589 0.000000
0.022004 0.072953 0.000000
0.044160 0.076555 0.000000
0.071015 0.079347 0.000000
0.097353 0.081270 0.000000
0.126680 0.082292 0.000000
0.159365 0.082383 0.000000
0.195132 0.081559 0.000000
0.233494 0.079896 0.000427
0.273793 0.077470 0.002869
0.316075 0.074235 0.006043
0.360815 0.069963 0.010163
0.407721 0.064485 0.015366
0.456443 0.057649 0.021851
0.506523 0.049470 0.029725
0.557427 0.040543 0.039094
0.608637 0.031083 0.050004
0.660700 0.020768 0.062501
0.713069 0.009827 0.075120
0.764599 0.000000 0.087388
0.814069 0.000000 0.099031
0.860075 0.000000 0.109773
0.901274 0.000000 0.119295
0.936339 0.000000 0.127291
0.965209 0.000000 0.133761
0.992004 0.000000 0.139727
1.000000 0.000000 0.145296
1.000000 0.000000 0.150454
1.000000 0.000000 0.155215
1.000000 0.011963 0.159594
1.000000 0.029068 0.163577
0.000000 0.083970 0.000000
0.000000 0.089784 0.000000
0.000000 0.094926 0.000000
0.014221 0.099474 0.000000
0.039261 0.103410 0.000000
0.069505 0.106691 0.000000
0.099626 0.109270 0.000000
0.132692 0.111086 0.000000
0.168765 0.112123 0.000000
0.207706 0.112367 0.000000
0.249104 0.111894 0.000000
0.292393 0.110811 0.000885
0.337469 0.109163 0.004501
0.384726 0.106844 0.009155
0.433906 0.103838 0.015045
0.484688 0.100130 0.022339
0.536629 0.095766 0.031174
0.589197 0.090806 0.041611
0.641794 0.085374 0.053712
0.694484 0.079301 0.066880
0.747173 0.072023 0.079850
0.798901 0.063752 0.092424
0.848585 0.055055 0.104341
0.895094 0.047410 0.115373
0.937255 0.042527 0.125246
0.973816 0.042008 0.133669
1.000000 0.047822 0.140337
1.000000 0.058289 0.146014
1.000000 0.070710 0.151247
1.000000 0.084306 0.156054
1.000000 0.098817 0.160418
1.000000 0.114031 0.164385
1.000000 0.130343 0.167269
0.000000 0.111269 0.000000
0.000000 0.118074 0.000000
0.000000 0.124254 0.000000
0.000000 0.129808 0.000000
0.025666 0.134722 0.000000
0.059892 0.138994 0.000000
0.096208 0.142596 0.000000
0.134279 0.145495 0.000000
0.174578 0.147692 0.000000
0.217212 0.149203 0.000000
0.261982 0.150088 0.000000
0.308446 0.150454 0.000000
0.356634 0.150393 0.000732
0.406638 0.149905 0.005890
0.458274 0.149004 0.012421
0.511208 0.147784 0.020462
0.564889 0.146136 0.030167
0.618631 0.144030 0.041581
0.671855 0.141619 0.054643
0.724376 0.138964 0.068452
0.776761 0.135866 0.081880
0.828290 0.132586 0.094820
0.877989 0.129564 0.107073
0.924819 0.127413 0.118425
0.967681 0.126955 0.128634
1.000000 0.129122 0.137423
1.000000 0.134859 0.144503
1.000000 0.144045 0.149996
1.000000 0.154498 0.154940
1.000000 0.165972 0.159396
1.000000 0.178347 0.163409
1.000000 0.193500 0.163149
1.000000 0.209186 0.161807
0.000000 0.143069 0.000000
0.000000 0.151171 0.000000
0.000000 0.158679 0.000000
0.000000 0.165484 0.000000
0.001999 0.171618 0.000000
0.038788 0.177111 0.000000
0.084977 0.181949 0.000000
0.130602 0.186114 0.000000
0.176516 0.189654 0.000000
0.223713 0.192599 0.000000
0.272404 0.194995 0.000000
0.322469 0.196994 0.000000
0.374014 0.198657 0.000000
0.426764 0.199786 0.000000
0.480430 0.200366 0.006012
0.534707 0.200473 0.014664
0.589197 0.200198 0.025055
0.643442 0.199634 0.037171
0.697002 0.198932 0.050980
0.749554 0.198215 0.065827
0.801740 0.197345 0.080110
0.853071 0.196475 0.093706
0.902693 0.195926 0.106493
0.949691 0.196109 0.118288
0.993042 0.197559 0.128908
1.000000 0.200839 0.138109
1.000000 0.206577 0.145617
1.000000 0.215198 0.151232
1.000000 0.225284 0.155917
1.000000 0.236667 0.159045
1.000000 0.250248 0.157488
1.000000 0.263935 0.155764
1.000000 0.277684 0.153887
0.000000 0.180270 0.000000
0.000000 0.189593 0.000000
0.000000 0.198444 0.000000
0.000000 0.206683 0.000000
0.000000 0.214313 0.000000
0.005142 0.221271 0.000000
0.060746 0.227558 0.000000
0.120165 0.233204 0.000000
0.174243 0.238270 0.000000
0.227253 0.242710 0.000000
0.280308 0.246387 0.000000
0.333867 0.249393 0.000000
0.388067 0.251804 0.000000
0.442893 0.253666 0.000000
0.498131 0.255055 0.000000
0.553536 0.256062 0.003525
0.608820 0.256779 0.014389
0.663630 0.257298 0.027008
0.717586 0.257771 0.041352
0.770336 0.258289 0.057298
0.822446 0.258793 0.073243
0.873625 0.259388 0.088045
0.923140 0.260288 0.101732
0.970169 0.261814 0.114260
1.000000 0.264347 0.125475
1.000000 0.268284 0.135195
1.000000 0.274098 0.143175
1.000000 0.282231 0.149142
1.000000 0.292653 0.151644
1.000000 0.304616 0.149706
1.000000 0.316747 0.147585
1.000000 0.328969 0.145296
1.000000 0.341283 0.142809
0.000000 0.223453 0.000000
0.000000 0.234150 0.000000
0.000000 0.244373 0.000000
0.000000 0.254032 0.000000
0.000000 0.263127 0.000000
0.000000 0.271641 0.000000
0.015763 0.279362 0.000000
0.098848 0.286152 0.000000
0.165499 0.292042 0.000000
0.225498 0.297078 0.000000
0.283330 0.301335 0.000000
0.340490 0.304906 0.000000
0.397498 0.307851 0.000000
0.454444 0.310292 0.000000
0.511315 0.312306 0.000000
0.567941 0.313985 0.000000
0.624125 0.315419 0.000000
0.679576 0.316716 0.009766
0.733989 0.317983 0.024445
0.787045 0.319341 0.040711
0.839216 0.320745 0.058686
0.890303 0.322286 0.075929
0.939681 0.324132 0.091341
0.986664 0.326528 0.105135
1.000000 0.329732 0.117311
1.000000 0.334096 0.127779
1.000000 0.339925 0.136385
1.000000 0.347692 0.141436
1.000000 0.357977 0.139117
1.000000 0.368597 0.136568
1.000000 0.379431 0.133776
1.000000 0.390478 0.130739
1.000000 0.401617 0.128695
0.000000 0.272984 0.000000
0.000000 0.285191 0.000000
0.000000 0.296880 0.000000
0.000000 0.307759 0.000000
0.000000 0.317769 0.000000
0.000000 0.326864 0.000000
0.000000 0.335042 0.000000
0.047410 0.342290 0.000000
0.144732 0.348623 0.000000
0.216098 0.354101 0.000000
0.280507 0.358785 0.000000
0.342092 0.362768 0.000000
0.402289 0.366140 0.000000
0.461631 0.369024 0.000000
0.520317 0.371496 0.000000
0.578317 0.373648 0.000000
0.635508 0.375601 0.000000
0.691676 0.377432 0.000000
0.746593 0.379263 0.000000
0.800031 0.381170 0.015366
0.852384 0.383185 0.033463
0.903426 0.385351 0.053101
0.952682 0.387808 0.072297
0.999481 0.390677 0.088640
1.000000 0.394156 0.102617
1.000000 0.398459 0.114458
1.000000 0.403738 0.124422
1.000000 0.411292 0.124407
1.000000 0.420340 0.121386
1.000000 0.429862 0.117983
1.000000 0.439689 0.114229
1.000000 0.449775 0.110109
1.000000 0.459663 0.117006
0.000000 0.328527 0.000000
0.000000 0.341604 0.000000
0.000000 0.353811 0.000000
0.000000 0.365087 0.000000
0.000000 0.375418 0.000000
0.000000 0.384833 0.000000
0.000000 0.393286 0.000000
0.000000 0.400793 0.000000
0.101442 0.407401 0.000000
0.196490 0.413138 0.000000
0.270954 0.418082 0.000000
0.338430 0.422339 0.000000
0.402579 0.426017 0.000000
0.464744 0.429191 0.000000
0.525490 0.431983 0.000000
0.585016 0.434485 0.000000
0.643336 0.436790 0.000000
0.700328 0.438987 0.000000
0.755795 0.441169 0.000000
0.809674 0.443442 0.000000
0.862181 0.445716 0.000000
0.913054 0.448081 0.017762
0.961929 0.450645 0.038361
1.000000 0.453574 0.059480
1.000000 0.456916 0.077989
1.000000 0.460853 0.093217
1.000000 0.465812 0.102861
1.000000 0.472755 0.099443
1.000000 0.480751 0.095232
1.000000 0.489357 0.090379
1.000000 0.498314 0.084916
1.000000 0.507454 0.082872
1.000000 0.516426 0.099046
0.000000 0.387121 0.000000
0.000000 0.400626 0.000000
0.000000 0.413153 0.000000
0.000000 0.424704 0.000000
0.000000 0.435233 0.000000
0.000000 0.444785 0.000000
0.000000 0.453361 0.000000
0.000000 0.460960 0.000000
0.000000 0.467643 0.000000
0.161151 0.473487 0.000000
0.253269 0.478584 0.000000
0.329168 0.482994 0.000000
0.398413 0.486854 0.000000
0.463996 0.490227 0.000000
0.527153 0.493217 0.000000
0.588434 0.495933 0.000000
0.647959 0.498405 0.000000
0.705699 0.500694 0.000000
0.761578 0.502876 0.000000
0.815747 0.505058 0.000000
0.868284 0.507286 0.000000
0.918975 0.509636 0.000000
0.967819 0.512169 0.000000
1.000000 0.514931 0.013825
1.000000 0.518029 0.035691
1.000000 0.521630 0.057343
1.000000 0.526482 0.063951
1.000000 0.532647 0.058335
1.000000 0.539773 0.051316
1.000000 0.547555 0.043442
1.000000 0.555718 0.034989
1.000000 0.563897 0.048447
1.000000 0.572229 0.070619
0.000000 0.448020 0.000000
0.000000 0.461524 0.000000
0.000000 0.474144 0.000000
0.000000 0.485801 0.000000
0.000000 0.496391 0.000000
0.000000 0.505959 0.000000
0.000000 0.514473 0.000000
0.000000 0.522042 0.000000
0.000000 0.528695 0.000000
0.090730 0.534554 0.000000
0.224735 0.539666 0.000000
0.313664 0.544152 0.000000
0.389731 0.548074 0.000000
0.459495 0.551476 0.000000
0.525368 0.554391 0.000000
0.588403 0.556954 0.000000
0.649073 0.559258 0.000000
0.707561 0.561379 0.000000
0.763989 0.563455 0.000000
0.818555 0.565530 0.000000
0.871290 0.567681 0.000000
0.922484 0.569924 0.000000
0.972045 0.572320 0.000000
1.000000 0.574899 0.000000
1.000000 0.577798 0.000000
1.000000 0.581094 0.002533
1.000000 0.585763 0.002045
1.000000 0.591318 0.000000
1.000000 0.597696 0.000000
1.000000 0.604746 0.000000
1.000000 0.612131 0.000000
1.000000 0.619516 0.001053
1.000000 0.627268 0.024308
0.000000 0.510552 0.000000
0.000000 0.523995 0.000000
0.000000 0.536385 0.000000
0.000000 0.547753 0.000000
0.000000 0.558099 0.000000
0.000000 0.567483 0.000000
0.000000 0.575891 0.000000
0.000000 0.583337 0.000000
0.000000 0.589914 0.000000
0.000000 0.595682 0.000000
0.178912 0.600656 0.000000
0.290486 0.604913 0.000000
0.375845 0.608560 0.000000
0.450767 0.611688 0.000000
0.519844 0.614374 0.000000
0.585000 0.616739 0.000000
0.647074 0.618860 0.000000
0.706569 0.620859 0.000000
0.763775 0.622812 0.000000
0.819059 0.624796 0.000000
0.872663 0.626856 0.000000
0.924636 0.628992 0.000000
0.974899 0.631250 0.000000
1.000000 0.633692 0.000000
1.000000 0.636393 0.000000
1.000000 0.639490 0.000000
1.000000 0.643915 0.000000
1.000000 0.648936 0.000000
1.000000 0.654704 0.000000
1.000000 0.661097 0.000000
1.000000 0.667643 0.000000
1.000000 0.674464 0.000000
1.000000 0.681651 0.000000
0.000000 0.573602 0.000000
0.000000 0.586984 0.000000
0.000000 0.599145 0.000000
0.000000 0.610163 0.000000
0.000000 0.620096 0.000000
0.000000 0.629053 0.000000
0.000000 0.637049 0.000000
0.000000 0.644114 0.000000
0.000000 0.650278 0.000000
0.000000 0.655650 0.000000
0.089235 0.660258 0.000000
0.256992 0.664210 0.000000
0.356359 0.667567 0.000000
0.438102 0.670451 0.000000
0.511208 0.672938 0.000000
0.578927 0.675135 0.000000
0.642771 0.677150 0.000000
0.703563 0.679057 0.000000
0.761944 0.680980 0.000000
0.818265 0.682933 0.000000
0.872755 0.684901 0.000000
0.925505 0.686961 0.000000
0.976471 0.689113 0.000000
1.000000 0.691417 0.000000
1.000000 0.693950 0.000000
1.000000 0.697017 0.000000
1.000000 0.701061 0.000000
1.000000 0.705653 0.000000
1.000000 0.710903 0.000000
1.000000 0.716609 0.000000
1.000000 0.722515 0.000000
1.000000 0.728817 0.000000
1.000000 0.735470 0.000000
0.000000 0.635935 0.000000
0.000000 0.649302 0.000000
0.000000 0.661295 0.000000
0.000000 0.671962 0.000000
0.000000 0.681422 0.000000
0.000000 0.689784 0.000000
0.000000 0.697154 0.000000
0.000000 0.703624 0.000000
0.000000 0.709255 0.000000
0.000000 0.714153 0.000000
0.000000 0.718379 0.000000
0.207813 0.722011 0.000000
0.330816 0.725124 0.000000
0.421851 0.727794 0.000000
0.500023 0.730114 0.000000
0.570871 0.732204 0.000000
0.636805 0.734203 0.000000
0.699214 0.736156 0.000000
0.758877 0.738064 0.000000
0.816281 0.739986 0.000000
0.871672 0.741924 0.000000
0.925200 0.743908 0.000000
0.976883 0.745968 0.000000
1.000000 0.748180 0.000000
1.000000 0.750576 0.000000
1.000000 0.753567 0.000000
1.000000 0.757321 0.000000
1.000000 0.761532 0.000000
1.000000 0.766339 0.000000
1.000000 0.771359 0.000000
1.000000 0.776806 0.000000
1.000000 0.782605 0.000000
1.000000 0.788693 0.000000
0.000000 0.696147 0.000000
0.000000 0.709438 0.000000
0.000000 0.721187 0.000000
0.000000 0.731518 0.000000
0.000000 0.740581 0.000000
0.000000 0.748531 0.000000
0.000000 0.755444 0.000000
0.000000 0.761471 0.000000
0.000000 0.766690 0.000000
0.000000 0.771191 0.000000
0.000000 0.775067 0.000000
0.122866 0.778393 0.000000
0.297887 0.781247 0.000000
0.402167 0.783719 0.000000
0.486534 0.785992 0.000000
0.560983 0.788144 0.000000
0.629374 0.790204 0.000000
0.693584 0.792187 0.000000
0.754650 0.794125 0.000000
0.813184 0.796033 0.000000
0.869520 0.797940 0.000000
0.923857 0.799878 0.000000
0.976226 0.801892 0.000000
1.000000 0.804013 0.000000
1.000000 0.806302 0.000000
1.000000 0.809232 0.000000
1.000000 0.812726 0.000000
1.000000 0.816632 0.000000
1.000000 0.820813 0.000000
1.000000 0.825223 0.000000
1.000000 0.829892 0.000000
1.000000 0.834730 0.000000
1.000000 0.839643 0.000000
0.000000 0.752407 0.000000
0.000000 0.765866 0.000000
0.000000 0.777676 0.000000
0.000000 0.787991 0.000000
0.000000 0.796963 0.000000
0.000000 0.804730 0.000000
0.000000 0.811444 0.000000
0.000000 0.817212 0.000000
0.000000 0.822171 0.000000
0.000000 0.826398 0.000000
0.000000 0.830014 0.000000
0.000000 0.833097 0.000000
0.255756 0.835843 0.000000
0.378576 0.838392 0.000000
0.470558 0.840772 0.000000
0.549340 0.843015 0.000000
0.620569 0.845151 0.000000
0.686809 0.847181 0.000000
0.749401 0.849149 0.000000
0.809140 0.851087 0.000000
0.866453 0.852995 0.000000
0.921584 0.854917 0.000000
0.974670 0.856886 0.000000
1.000000 0.858961 0.000000
1.000000 0.861143 0.000000
1.000000 0.863920 0.000000
1.000000 0.866941 0.000000
1.000000 0.870008 0.000000
1.000000 0.873121 0.000000
1.000000 0.876356 0.000000
1.000000 0.879622 0.000000
1.000000 0.882826 0.000000
1.000000 0.885939 0.000000
0.000000 0.804669 0.000000
0.000000 0.817975 0.000000
0.000000 0.830152 0.000000
0.000000 0.840772 0.000000
0.000000 0.849958 0.000000
0.000000 0.857847 0.000000
0.000000 0.864607 0.000000
0.000000 0.870344 0.000000
0.000000 0.875227 0.000000
0.000000 0.879362 0.000000
0.000000 0.882902 0.000000
0.000000 0.886137 0.000000
0.197421 0.889097 0.000000
0.350668 0.891829 0.000000
0.452399 0.894362 0.000000
0.536263 0.896742 0.000000
0.610697 0.898985 0.000000
0.679133 0.901106 0.000000
0.743359 0.903136 0.000000
0.804349 0.905104 0.000000
0.862669 0.907057 0.000000
0.918593 0.908949 0.000000
0.972229 0.910750 0.000000
1.000000 0.912459 0.000000
1.000000 0.914061 0.000000
1.000000 0.916014 0.000000
1.000000 0.917815 0.000000
1.000000 0.919417 0.000000
1.000000 0.920958 0.000000
1.000000 0.922362 0.000000
1.000000 0.923583 0.000000
1.000000 0.924575 0.000000
1.000000 0.925597 0.000000
0.000000 0.854658 0.000000
0.000000 0.867262 0.000000
0.000000 0.878813 0.000000
0.000000 0.889403 0.000000
0.000000 0.899016 0.000000
0.000000 0.907347 0.000000
0.000000 0.914412 0.000000
0.000000 0.920394 0.000000
0.000000 0.925444 0.000000
0.000000 0.929900 0.000000
0.000000 0.933898 0.000000
0.000000 0.937530 0.000000
0.101427 0.940826 0.000000
0.319051 0.943832 0.000000
0.432929 0.946609 0.000000
0.522499 0.949187 0.000000
0.600336 0.951598 0.000000
0.671077 0.953857 0.000000
0.736889 0.955917 0.000000
0.798932 0.957778 0.000000
0.857832 0.959380 0.000000
0.913970 0.960693 0.000000
0.967498 0.961700 0.000000
1.000000 0.962387 0.000000
1.000000 0.962737 0.000000
1.000000 0.963058 0.000000
1.000000 0.962982 0.000000
1.000000 0.962600 0.000000
1.000000 0.962036 0.000000
1.000000 0.961486 0.000000
1.000000 0.960998 0.000000
1.000000 0.960601 0.000000
1.000000 0.960311 0.000000
0.000000 0.902586 0.000000
0.000000 0.914443 0.000000
0.000000 0.925429 0.000000
0.000000 0.935546 0.000000
0.000000 0.944701 0.000000
0.000000 0.952987 0.000000
0.000000 0.960403 0.000000
0.000000 0.967041 0.000000
0.000000 0.972915 0.000000
0.000000 0.978134 0.000000
0.000000 0.982803 0.000000
0.000000 0.986984 0.000000
0.000000 0.990753 0.000000
0.285847 0.994186 0.000000
0.413886 0.997284 0.000000
0.509178 1.000000 0.000000
0.590066 1.000000 0.000000
0.662501 1.000000 0.000000
0.729183 1.000000 0.000000
0.791516 1.000000 0.000000
0.850294 1.000000 0.000000
0.905913 1.000000 0.000000
0.958602 1.000000 0.000000
1.000000 1.000000 0.000000
1.000000 1.000000 0.000000
1.000000 1.000000 0.000000
1.000000 1.000000 0.000000
1.000000 0.999252 0.000000
1.000000 0.997421 0.000000
1.000000 0.995621 0.000000
1.000000 0.993896 0.000000
1.000000 0.992264 0.000000
1.000000 0.990768 0.000000
0.000000 0.948730 0.000000
0.000000 0.959869 0.000000
0.000000 0.970199 0.000000
0.000000 0.979736 0.000000
0.000000 0.988479 0.000000
0.000000 0.996490 0.000000
0.000000 1.000000 0.000000
0.000000 1.000000 0.000000
0.000000 1.000000 0.000000
0.000000 1.000000 0.000000
0.000000 1.000000 0.000000
0.000000 1.000000 0.000000
0.000000 1.000000 0.000000
0.255314 1.000000 0.000000
0.396826 1.000000 0.000000
0.496407 1.000000 0.000000
0.579095 1.000000 0.000000
0.652171 1.000000 0.000000
0.718807 1.000000 0.000000
0.780575 1.000000 0.000000
0.838376 1.000000 0.000000
0.892729 1.000000 0.000000
0.944137 1.000000 0.000000
0.992676 1.000000 0.000000
1.000000 1.000000 0.000000
1.000000 1.000000 0.000000
1.000000 1.000000 0.000000
1.000000 1.000000 0.000000
1.000000 1.000000 0.000000
1.000000 1.000000 0.000000
1.000000 1.000000 0.000000
1.000000 1.000000 0.000000
1.000000 1.000000 0.000000
0.000000 0.993103 0.000000
0.000000 1.000000 0.000000
0.000000 1.000000 0.000000
0.000000 1.000000 0.000000
0.000000 1.000000 0.000000
0.000000 1.000000 0.000000
0.000000 1.000000 0.000000
0.000000 1.000000 0.000000
0.000000 1.000000 0.000000
0.000000 1.000000 0.000000
0.000000 1.000000 0.000000
0.000000 1.000000 0.000000
0.000000 1.000000 0.000000
0.231510 1.000000 0.000000
0.382391 1.000000 0.000000
0.483772 1.000000 0.000000
0.566537 1.000000 0.000000
0.638926 1.000000 0.000000
0.704509 1.000000 0.000000
0.765270 1.000000 0.000000
0.822263 1.000000 0.000000
0.875975 1.000000 0.000000
0.926635 1.000000 0.000000
0.974365 1.000000 0.000000
1.000000 1.000000 0.000000
1.000000 1.000000 0.000000
1.000000 1.000000 0.000000
1.000000 1.000000 0.000000
1.000000 1.000000 0.000000
1.000000 1.000000 0.000000
1.000000 1.000000 0.000000
1.000000 1.000000 0.000000
1.000000 1.000000 0.000000
0.000000 1.000000 0.000000
0.000000 1.000000 0.000000
0.000000 1.000000 0.000000
0.000000 1.000000 0.000000
0.000000 1.000000 0.000000
0.000000 1.000000 0.000000
0.000000 1.000000 0.000000
0.000000 1.000000 0.000000
0.000000 1.000000 0.000000
0.000000 1.000000 0.000000
0.000000 1.000000 0.000000
0.000000 1.000000 0.000000
0.000000 1.000000 0.000000
0.289479 1.000000 0.000000
0.411307 1.000000 0.000000
0.500862 1.000000 0.000000
0.576074 1.000000 0.000000
0.642863 1.000000 0.000000
0.704067 1.000000 0.000000
0.761166 1.000000 0.000000
0.814847 1.000000 0.000000
0.865507 1.000000 0.000000
0.913359 1.000000 0.000000
0.958480 1.000000 0.000000
1.000000 1.000000 0.000000
1.000000 1.000000 0.000000
1.000000 1.000000 0.000000
1.000000 1.000000 0.000000
1.000000 1.000000 0.000000
1.000000 1.000000 0.000000
1.000000 1.000000 0.000000
1.000000 1.000000 0.000000
1.000000 1.000000 0.000000
0.000000 1.000000 0.000000
0.000000 1.000000 0.000000
0.000000 1.000000 0.000000
0.000000 1.000000 0.000000
0.000000 1.000000 0.000000
0.000000 1.000000 0.000000
0.000000 1.000000 0.000000
0.000000 1.000000 0.000000
0.000000 1.000000 0.000000
0.000000 1.000000 0.000000
0.000000 1.000000 0.000000
0.000000 1.000000 0.000000
0.156054 1.000000 0.000000
0.330663 1.000000 0.000000
0.432593 1.000000 0.000000
0.512764 1.000000 0.000000
0.581979 1.000000 0.000000
0.644572 1.000000 0.000000
0.702495 1.000000 0.000000
0.756771 1.000000 0.000000
0.807950 1.000000 0.000000
0.856367 1.000000 0.000000
0.902144 1.000000 0.000000
0.945342 1.000000 0.000000
0.985931 1.000000 0.000000
1.000000 1.000000 0.000000
1.000000 1.000000 0.000000
1.000000 1.000000 0.000000
1.000000 1.000000 0.000000
1.000000 1.000000 0.000000
