ARRI_LogC2Video_P3DCI_davinci3d_33.cube
LUT_3D_SIZE 9
0.000000 0.000000 0.000000
0.011978 0.000000 0.000153
0.078172 0.000000 0.000992
0.175463 0.000000 0.003433
0.319768 0.000000 0.011643
0.496925 0.000000 0.032670
0.652308 0.000000 0.064195
0.783978 0.000000 0.094545
0.893690 0.000000 0.119844
0.000000 0.032975 0.001328
0.043412 0.049607 0.000000
0.147051 0.052827 0.000000
0.292393 0.038819 0.006714
0.474464 0.007385 0.027543
0.676478 0.000000 0.069429
0.859556 0.000000 0.111803
0.976364 0.000000 0.137697
1.000000 0.000000 0.157321
0.000000 0.143069 0.000000
0.001999 0.171618 0.000000
0.176516 0.189654 0.000000
0.374014 0.198657 0.000000
0.589197 0.200198 0.025055
0.801740 0.197345 0.080110
0.993042 0.197559 0.128908
1.000000 0.225284 0.155917
1.000000 0.277684 0.153887
0.000000 0.328527 0.000000
0.000000 0.375418 0.000000
0.101442 0.407401 0.000000
0.402579 0.426017 0.000000
0.643336 0.436790 0.000000
0.862181 0.445716 0.000000
1.000000 0.456916 0.077989
1.000000 0.480751 0.095232
1.000000 0.516426 0.099046
0.000000 0.573602 0.000000
0.000000 0.620096 0.000000
0.000000 0.650278 0.000000
0.356359 0.667567 0.000000
0.642771 0.677150 0.000000
0.872755 0.684901 0.000000
1.000000 0.693950 0.000000
1.000000 0.710903 0.000000
1.000000 0.735470 0.000000
0.000000 0.804669 0.000000
0.000000 0.849958 0.000000
0.000000 0.875227 0.000000
0.197421 0.889097 0.000000
0.610697 0.898985 0.000000
0.862669 0.907057 0.000000
1.000000 0.914061 0.000000
1.000000 0.920958 0.000000
1.000000 0.925597 0.000000
0.000000 0.993103 0.000000
0.000000 1.000000 0.000000
0.000000 1.000000 0.000000
0.000000 1.000000 0.000000
0.566537 1.000000 0.000000
0.822263 1.000000 0.000000
1.000000 1.000000 0.000000
1.000000 1.000000 0.000000
1.000000 1.000000 0.000000
0.000000 1.000000 0.000000
0.000000 1.000000 0.000000
0.000000 1.000000 0.000000
0.268803 1.000000 0.000000
0.586999 1.000000 0.000000
0.791974 1.000000 0.000000
0.954940 1.000000 0.000000
1.000000 1.000000 0.000000
1.000000 1.000000 0.322530
0.000000 1.000000 0.107774
0.000000 1.000000 0.000000
0.000000 1.000000 0.000000
0.351385 1.000000 0.000000
0.595575 1.000000 0.000000
0.771801 1.000000 0.000000
0.908873 1.000000 0.232471
1.000000 1.000000 0.426261
1.000000 1.000000 0.578943
0.000000 0.000000 0.004166
0.025589 0.000000 0.021210
0.108309 0.000000 0.040681
0.226184 0.000000 0.054154
0.388739 0.000000 0.065263
0.578943 0.000000 0.081300
0.740581 0.000000 0.102022
0.858946 0.000000 0.124422
0.953002 0.000000 0.148592
0.000000 0.034272 0.033310
0.041947 0.041947 0.041947
0.167910 0.036683 0.041093
0.338552 0.013367 0.034546
0.531594 0.000000 0.040803
0.736812 0.000000 0.083680
0.928069 0.000000 0.127764
1.000000 0.000000 0.161364
1.000000 0.000000 0.194003
0.000000 0.155474 0.036820
0.000000 0.180133 0.013336
0.181460 0.194629 0.000000
0.402991 0.198093 0.000000
0.628000 0.194308 0.034714
0.842100 0.188800 0.091951
1.000000 0.187793 0.139773
1.000000 0.210727 0.177630
1.000000 0.265446 0.206363
0.000000 0.353918 0.000000
0.000000 0.396262 0.000000
0.026596 0.421805 0.000000
0.409842 0.433600 0.000000
0.663539 0.439612 0.000000
0.886030 0.446311 0.007477
1.000000 0.455512 0.109102
1.000000 0.473610 0.144213
1.000000 0.506172 0.191470
0.000000 0.600641 0.000000
0.000000 0.640589 0.000000
0.000000 0.664820 0.000000
0.342931 0.676997 0.000000
0.648493 0.683116 0.000000
0.888136 0.688136 0.000000
1.000000 0.694560 0.000000
1.000000 0.707347 0.000000
1.000000 0.728389 0.125948
0.000000 0.834760 0.000000
0.000000 0.869581 0.000000
0.000000 0.887526 0.000000
0.097749 0.899336 0.000000
0.603326 0.907469 0.000000
0.869047 0.913359 0.000000
1.000000 0.917128 0.000000
1.000000 0.918730 0.000000
1.000000 0.918502 0.008682
0.000000 1.000000 0.000000
0.000000 1.000000 0.000000
0.000000 1.000000 0.000000
0.000000 1.000000 0.000000
0.523644 1.000000 0.000000
0.806378 1.000000 0.000000
1.000000 1.000000 0.000000
1.000000 1.000000 0.000000
1.000000 1.000000 0.197589
0.000000 1.000000 0.088670
0.000000 1.000000 0.000000
0.000000 1.000000 0.000000
0.000000 1.000000 0.000000
0.516655 1.000000 0.000000
0.760021 1.000000 0.000000
0.942519 1.000000 0.000000
1.000000 1.000000 0.241032
1.000000 1.000000 0.449805
0.000000 1.000000 0.310140
0.000000 1.000000 0.212360
0.000000 1.000000 0.020264
0.208927 1.000000 0.000000
0.553933 1.000000 0.000000
0.755077 1.000000 0.217502
0.899855 1.000000 0.387427
0.996002 1.000000 0.535027
1.000000 1.000000 0.669856
0.000000 0.000000 0.030976
0.037919 0.000000 0.078050
0.133989 0.000000 0.119066
0.271901 0.000000 0.153704
0.448768 0.000000 0.180316
0.645304 0.000000 0.200610
0.804089 0.000000 0.210559
0.909941 0.000000 0.217182
0.991821 0.000000 0.228763
0.000000 0.021408 0.101930
0.027863 0.006943 0.137407
0.181994 0.000000 0.166033
0.371267 0.000000 0.185077
0.574014 0.000000 0.195987
0.779782 0.000000 0.211307
0.969635 0.000000 0.234348
1.000000 0.000000 0.258076
1.000000 0.000000 0.281529
0.000000 0.153231 0.150744
0.000000 0.168536 0.166033
0.175006 0.175006 0.175006
0.414679 0.173434 0.183078
0.656901 0.162203 0.196048
0.867872 0.154101 0.221668
1.000000 0.151095 0.254734
1.000000 0.174563 0.282078
1.000000 0.232334 0.315282
0.000000 0.367483 0.168353
0.000000 0.403784 0.157626
0.000000 0.421134 0.150134
0.409934 0.429526 0.154055
0.677043 0.433387 0.170840
0.903075 0.437415 0.214206
1.000000 0.444266 0.259983
1.000000 0.460807 0.286091
1.000000 0.486473 0.321981
0.000000 0.616312 0.134340
0.000000 0.650492 0.083726
0.000000 0.670848 0.022873
0.321813 0.680171 0.013321
0.651026 0.683375 0.078447
0.900877 0.685267 0.161852
1.000000 0.689403 0.227253
1.000000 0.700343 0.262150
1.000000 0.717220 0.312093
0.000000 0.849866 0.000000
0.000000 0.876677 0.000000
0.000000 0.893538 0.000000
0.000000 0.904845 0.000000
0.591928 0.911498 0.000000
0.872297 0.914809 0.000000
1.000000 0.914351 0.136263
1.000000 0.911437 0.222019
1.000000 0.907836 0.314702
0.000000 1.000000 0.146105
0.000000 1.000000 0.000000
0.000000 1.000000 0.000000
0.000000 1.000000 0.000000
0.489967 1.000000 0.000000
0.793637 1.000000 0.000000
1.000000 1.000000 0.000000
1.000000 1.000000 0.235080
1.000000 1.000000 0.398550
0.000000 1.000000 0.360525
0.000000 1.000000 0.286198
0.000000 1.000000 0.137469
0.000000 1.000000 0.000000
0.448035 1.000000 0.000000
0.736446 1.000000 0.000000
0.930831 1.000000 0.255344
1.000000 1.000000 0.419135
1.000000 1.000000 0.562325
0.000000 1.000000 0.444923
0.000000 1.000000 0.380056
0.000000 1.000000 0.313558
0.000000 1.000000 0.272145
0.516686 1.000000 0.301472
0.739132 1.000000 0.393393
0.890929 1.000000 0.508568
0.988418 1.000000 0.632502
1.000000 1.000000 0.751873
0.000000 0.000000 0.086931
0.039399 0.000000 0.155215
0.150286 0.000000 0.223392
0.306416 0.000000 0.281041
0.494484 0.000000 0.323079
0.690135 0.000000 0.347875
0.835691 0.000000 0.346578
0.934264 0.000000 0.338445
1.000000 0.000000 0.336828
0.000000 0.000000 0.196887
0.000000 0.000000 0.266682
0.177752 0.000000 0.320760
0.383978 0.000000 0.353902
0.596689 0.000000 0.371466
0.802564 0.000000 0.382498
0.987869 0.000000 0.393530
1.000000 0.000000 0.398489
1.000000 0.000000 0.405020
0.000000 0.101381 0.289540
0.000000 0.075319 0.339040
0.138430 0.034562 0.367956
0.415625 0.000000 0.389075
0.664973 0.000000 0.402853
0.876692 0.000000 0.411841
1.000000 0.000000 0.427039
1.000000 0.000000 0.441978
1.000000 0.128954 0.459709
0.000000 0.356725 0.352331
0.000000 0.382650 0.378012
0.000000 0.393561 0.389761
0.398917 0.398917 0.398917
0.671839 0.401755 0.410285
0.914458 0.402396 0.425025
1.000000 0.409659 0.448051
1.000000 0.427680 0.464027
1.000000 0.451621 0.484627
0.000000 0.615122 0.379141
0.000000 0.643427 0.384207
0.000000 0.660975 0.383734
0.300145 0.665827 0.390524
0.645655 0.668376 0.401755
0.908598 0.669780 0.413107
1.000000 0.672328 0.440467
1.000000 0.682872 0.464851
1.000000 0.700404 0.500572
0.000000 0.849454 0.386709
0.000000 0.872465 0.382696
0.000000 0.889784 0.375677
0.000000 0.901946 0.367437
0.571374 0.908400 0.364935
0.871244 0.908385 0.381674
1.000000 0.903029 0.421241
1.000000 0.896727 0.461982
1.000000 0.893217 0.520623
0.000000 1.000000 0.428595
0.000000 1.000000 0.390814
0.000000 1.000000 0.376059
0.000000 1.000000 0.353796
0.448722 1.000000 0.335332
0.778790 1.000000 0.346654
1.000000 1.000000 0.405890
1.000000 1.000000 0.488441
1.000000 1.000000 0.582208
0.000000 1.000000 0.528985
0.000000 1.000000 0.477684
0.000000 1.000000 0.405509
0.000000 1.000000 0.360616
0.415076 1.000000 0.361578
0.728328 1.000000 0.411780
0.921828 1.000000 0.496956
1.000000 1.000000 0.593881
1.000000 1.000000 0.692485
0.000000 1.000000 0.571511
0.000000 1.000000 0.523903
0.000000 1.000000 0.479011
0.000000 1.000000 0.455390
0.493141 1.000000 0.479255
0.735088 1.000000 0.548806
0.889036 1.000000 0.639658
0.982162 1.000000 0.736889
1.000000 1.000000 0.830533
0.000000 0.000000 0.165255
0.014633 0.000000 0.261753
0.147784 0.000000 0.353643
0.323842 0.000000 0.429526
0.520745 0.000000 0.482368
0.705272 0.000000 0.501717
0.836301 0.000000 0.486091
0.932631 0.000000 0.466163
1.000000 0.000000 0.452277
0.000000 0.000000 0.318883
0.000000 0.000000 0.411246
0.127840 0.000000 0.484718
0.374334 0.000000 0.531975
0.597955 0.000000 0.554894
0.805447 0.000000 0.563287
0.983322 0.000000 0.562997
1.000000 0.000000 0.548302
1.000000 0.000000 0.539620
0.000000 0.000000 0.447959
0.000000 0.000000 0.519951
0.000000 0.000000 0.573861
0.395315 0.000000 0.600610
0.650919 0.000000 0.607294
0.867781 0.000000 0.607080
1.000000 0.000000 0.610742
1.000000 0.000000 0.615717
1.000000 0.000000 0.616999
0.000000 0.297063 0.538811
0.000000 0.303563 0.582803
0.000000 0.302434 0.611856
0.368414 0.306004 0.619699
0.661112 0.307057 0.629038
0.909697 0.306462 0.637980
1.000000 0.321309 0.644633
1.000000 0.349264 0.650126
1.000000 0.384024 0.659556
0.000000 0.589837 0.583261
0.000000 0.611337 0.604547
0.000000 0.624887 0.618494
0.247166 0.629282 0.624903
0.631846 0.631846 0.631846
0.899748 0.632807 0.640162
1.000000 0.633829 0.649531
1.000000 0.648707 0.663432
1.000000 0.671962 0.685237
0.000000 0.832502 0.601923
0.000000 0.854704 0.610880
0.000000 0.871733 0.615427
0.000000 0.884703 0.615137
0.551827 0.887266 0.620294
0.861524 0.885298 0.630076
1.000000 0.878920 0.639338
1.000000 0.872435 0.662257
1.000000 0.872801 0.699733
0.000000 1.000000 0.627741
0.000000 1.000000 0.621607
0.000000 1.000000 0.617594
0.000000 1.000000 0.603967
0.396002 1.000000 0.588678
0.761028 1.000000 0.587961
0.993545 1.000000 0.619501
1.000000 1.000000 0.672969
1.000000 0.985550 0.733104
0.000000 1.000000 0.683574
0.000000 1.000000 0.649744
0.000000 1.000000 0.609125
0.000000 1.000000 0.589075
0.398886 1.000000 0.589929
0.725154 1.000000 0.619944
0.913497 1.000000 0.670512
1.000000 1.000000 0.735225
1.000000 1.000000 0.805692
0.000000 1.000000 0.698283
0.000000 1.000000 0.664286
0.000000 1.000000 0.632990
0.000000 1.000000 0.620417
0.512642 1.000000 0.647044
0.751202 1.000000 0.699672
0.895521 1.000000 0.765057
0.978714 1.000000 0.835782
1.000000 1.000000 0.903487
0.000000 0.000000 0.269673
0.000000 0.000000 0.391043
0.103151 0.000000 0.501152
0.317922 0.000000 0.586511
0.517128 0.000000 0.634348
0.683391 0.000000 0.635142
0.811963 0.000000 0.612131
0.909133 0.000000 0.584176
0.984298 0.000000 0.562600
0.000000 0.000000 0.460914
0.000000 0.000000 0.570153
0.000000 0.000000 0.654810
0.337896 0.000000 0.706172
0.578683 0.000000 0.729732
0.788968 0.000000 0.734325
0.954376 0.000000 0.717678
1.000000 0.000000 0.687984
1.000000 0.000000 0.670146
0.000000 0.000000 0.615122
0.000000 0.000000 0.698543
0.000000 0.000000 0.755169
0.341726 0.000000 0.784955
0.620462 0.000000 0.792370
0.846601 0.000000 0.790494
1.000000 0.000000 0.788922
1.000000 0.000000 0.785794
1.000000 0.000000 0.771450
0.000000 0.006287 0.720256
0.000000 0.000000 0.773495
0.000000 0.000000 0.808286
0.302373 0.000000 0.829923
0.638056 0.000000 0.838270
0.889097 0.000000 0.837888
1.000000 0.000000 0.837018
1.000000 0.069459 0.833951
1.000000 0.229725 0.831220
0.000000 0.531701 0.771817
0.000000 0.545541 0.801358
0.000000 0.553475 0.824369
0.019699 0.555810 0.842176
0.606012 0.558633 0.845899
0.887007 0.558419 0.852857
1.000000 0.562509 0.856733
1.000000 0.590875 0.854063
1.000000 0.629664 0.856596
0.000000 0.798505 0.789975
0.000000 0.819684 0.811002
0.000000 0.834867 0.826490
0.000000 0.845731 0.838453
0.521279 0.847333 0.842802
0.845106 0.845106 0.845106
1.000000 0.839521 0.844770
1.000000 0.837781 0.843091
1.000000 0.848310 0.853223
0.000000 1.000000 0.806409
0.000000 1.000000 0.820386
0.000000 1.000000 0.824170
0.000000 1.000000 0.816373
0.332769 1.000000 0.802762
0.751797 1.000000 0.800290
0.975631 0.994339 0.810681
1.000000 0.975662 0.826123
1.000000 0.965560 0.856077
0.000000 1.000000 0.831968
0.000000 1.000000 0.816739
0.000000 1.000000 0.794507
0.000000 1.000000 0.779812
0.409812 1.000000 0.776333
0.726558 1.000000 0.785962
0.906447 1.000000 0.809598
1.000000 1.000000 0.847211
1.000000 1.000000 0.892653
0.000000 1.000000 0.823255
0.000000 1.000000 0.800824
0.000000 1.000000 0.780133
0.000000 1.000000 0.773266
0.558480 1.000000 0.790524
0.775280 1.000000 0.821820
0.906050 1.000000 0.863493
0.978164 1.000000 0.910155
1.000000 1.000000 0.954421
0.000000 0.000000 0.372900
0.000000 0.000000 0.512734
0.000000 0.000000 0.631846
0.272984 0.000000 0.712093
0.476188 0.000000 0.745769
0.640452 0.000000 0.742092
0.770611 0.000000 0.717067
0.870665 0.000000 0.685176
0.957153 0.000000 0.663340
0.000000 0.000000 0.602884
0.000000 0.000000 0.729442
0.000000 0.000000 0.817334
0.261585 0.000000 0.867002
0.540230 0.000000 0.885069
0.747707 0.000000 0.874464
0.901930 0.000000 0.840513
1.000000 0.000000 0.809339
1.000000 0.000000 0.788891
0.000000 0.000000 0.777661
0.000000 0.000000 0.866194
0.000000 0.000000 0.921431
0.245991 0.000000 0.949355
0.578332 0.000000 0.955596
0.815717 0.000000 0.956146
1.000000 0.000000 0.953857
1.000000 0.000000 0.940154
1.000000 0.000000 0.910689
0.000000 0.000000 0.887739
0.000000 0.000000 0.943572
0.000000 0.000000 0.978180
0.178668 0.000000 1.000000
0.596887 0.000000 1.000000
0.859037 0.000000 1.000000
1.000000 0.000000 1.000000
1.000000 0.000000 1.000000
1.000000 0.000000 0.986893
0.000000 0.424048 0.937407
0.000000 0.426993 0.976287
0.000000 0.424475 1.000000
0.000000 0.433707 1.000000
0.572076 0.441260 1.000000
0.868421 0.445762 1.000000
1.000000 0.463645 1.000000
1.000000 0.508141 1.000000
1.000000 0.579767 1.000000
0.000000 0.745266 0.954376
0.000000 0.764157 0.992966
0.000000 0.780056 1.000000
0.000000 0.793881 1.000000
0.482231 0.798703 1.000000
0.825940 0.795148 1.000000
1.000000 0.789181 1.000000
1.000000 0.798566 0.996277
1.000000 0.824964 0.976074
0.000000 0.976364 0.966201
0.000000 1.000000 0.993652
0.000000 1.000000 0.993912
0.000000 1.000000 0.994522
0.297414 0.998352 0.991318
0.746502 0.975738 0.972076
0.958053 0.958053 0.958053
1.000000 0.948821 0.950317
1.000000 0.948379 0.949889
0.000000 1.000000 0.971298
0.000000 1.000000 0.971893
0.000000 1.000000 0.960235
0.000000 1.000000 0.942809
0.445945 1.000000 0.928466
0.736690 1.000000 0.920363
0.906722 1.000000 0.923903
1.000000 1.000000 0.936584
1.000000 0.997101 0.953780
0.000000 1.000000 0.940642
0.000000 1.000000 0.926101
0.000000 1.000000 0.910536
0.138857 1.000000 0.900587
0.616541 1.000000 0.903197
0.807019 1.000000 0.915221
0.920790 1.000000 0.935210
0.980652 1.000000 0.960082
1.000000 1.000000 0.984268
0.000000 0.000000 0.470512
0.000000 0.000000 0.610666
0.000000 0.000000 0.725689
0.189548 0.000000 0.799771
0.420737 0.000000 0.829541
0.588144 0.000000 0.824964
0.719661 0.000000 0.799100
0.828016 0.000000 0.771008
0.925200 0.000000 0.752544
0.000000 0.000000 0.703273
0.000000 0.000000 0.834714
0.000000 0.000000 0.926787
0.086473 0.000000 0.974380
0.475059 0.000000 0.981598
0.681987 0.000000 0.961227
0.843488 0.000000 0.934997
0.976196 0.000000 0.910643
1.000000 0.000000 0.892210
0.000000 0.000000 0.886717
0.000000 0.000000 0.999451
0.000000 0.000000 1.000000
0.148257 0.000000 1.000000
0.548363 0.000000 1.000000
0.788891 0.000000 1.000000
0.987045 0.000000 1.000000
1.000000 0.000000 1.000000
1.000000 0.000000 1.000000
0.000000 0.000000 1.000000
0.000000 0.000000 1.000000
0.000000 0.000000 1.000000
0.171206 0.000000 1.000000
0.589868 0.000000 1.000000
0.846586 0.000000 1.000000
1.000000 0.000000 1.000000
1.000000 0.000000 1.000000
1.000000 0.000000 1.000000
0.000000 0.315023 1.000000
0.000000 0.382986 1.000000
0.000000 0.417136 1.000000
0.000000 0.438178 1.000000
0.577508 0.450660 1.000000
0.857710 0.463203 1.000000
1.000000 0.488518 1.000000
1.000000 0.539742 1.000000
1.000000 0.606485 1.000000
0.000000 0.713634 1.000000
0.000000 0.756252 1.000000
0.000000 0.778576 1.000000
0.000000 0.791989 1.000000
0.513924 0.797238 1.000000
0.826001 0.795239 1.000000
1.000000 0.793713 1.000000
1.000000 0.806104 1.000000
1.000000 0.830259 1.000000
0.000000 0.963409 0.996262
0.000000 1.000000 0.993698
0.000000 1.000000 0.993988
0.000000 1.000000 0.994736
0.419028 0.981857 0.997238
0.760372 0.959457 1.000000
0.950103 0.942580 1.000000
1.000000 0.936584 1.000000
1.000000 0.941329 1.000000
0.000000 1.000000 0.993744
0.000000 1.000000 0.993881
0.000000 1.000000 0.994202
0.000000 1.000000 0.995041
0.520439 1.000000 0.996277
0.764508 1.000000 0.997681
0.912566 1.000000 0.999008
0.992126 0.992126 0.992126
1.000000 0.989776 0.990051
0.000000 1.000000 0.994018
0.000000 1.000000 0.994369
0.000000 1.000000 0.994934
0.376806 1.000000 0.995834
0.682750 1.000000 0.984375
0.844938 1.000000 0.979126
0.939406 1.000000 0.981003
0.986343 1.000000 0.988693
0.999557 0.999847 0.997375
0.000000 0.000000 0.567102
0.000000 0.000000 0.701625
0.000000 0.000000 0.805936
0.000000 0.000000 0.868910
0.357275 0.000000 0.892805
0.531899 0.000000 0.886107
0.667491 0.000000 0.863127
0.785519 0.000000 0.843793
0.891264 0.000000 0.830411
0.000000 0.000000 0.789059
0.000000 0.000000 0.902754
0.000000 0.000000 0.980514
0.000000 0.000000 1.000000
0.404883 0.000000 1.000000
0.619745 0.000000 1.000000
0.788327 0.000000 1.000000
0.929320 0.000000 0.993744
1.000000 0.000000 0.979873
0.000000 0.000000 0.957473
0.000000 0.000000 1.000000
0.000000 0.000000 1.000000
0.123140 0.000000 1.000000
0.524498 0.000000 1.000000
0.753277 0.000000 1.000000
0.939101 0.000000 1.000000
1.000000 0.000000 1.000000
1.000000 0.000000 1.000000
0.000000 0.000000 1.000000
0.000000 0.000000 1.000000
0.000000 0.000000 1.000000
0.198596 0.000000 1.000000
0.586572 0.000000 1.000000
0.834302 0.000000 1.000000
1.000000 0.000000 1.000000
1.000000 0.000000 1.000000
1.000000 0.000000 1.000000
0.000000 0.301137 1.000000
0.000000 0.379110 1.000000
0.000000 0.421637 1.000000
0.000000 0.445838 1.000000
0.585214 0.463737 1.000000
0.848844 0.484871 1.000000
1.000000 0.520775 1.000000
1.000000 0.579568 1.000000
1.000000 0.646738 1.000000
0.000000 0.705104 1.000000
0.000000 0.749081 1.000000
0.000000 0.776913 1.000000
0.000000 0.790890 1.000000
0.551629 0.797742 1.000000
0.829816 0.799893 1.000000
1.000000 0.805814 1.000000
1.000000 0.823117 1.000000
1.000000 0.850492 1.000000
0.000000 0.955917 0.996780
0.000000 0.988876 0.994812
0.000000 0.999573 0.994400
0.000000 0.987304 0.995956
0.519600 0.968505 0.998383
0.790768 0.951644 1.000000
0.948989 0.941283 1.000000
1.000000 0.940993 1.000000
1.000000 0.950835 1.000000
0.000000 1.000000 0.993851
0.000000 1.000000 0.994079
0.000000 1.000000 0.994522
0.000000 1.000000 0.995422
0.612512 1.000000 0.996704
0.810285 1.000000 0.998047
0.928389 0.996353 0.999435
0.990158 0.988724 1.000000
1.000000 0.989441 1.000000
0.000000 1.000000 0.994247
0.000000 1.000000 0.994736
0.000000 1.000000 0.995438
0.544198 1.000000 0.996384
0.758251 1.000000 0.997635
0.887648 1.000000 0.998764
0.960510 1.000000 0.999527
0.993072 0.998932 0.998825
1.000000 1.000000 1.000000
