ARRI_LogC2Video_P3DCI_davinci3d_33.cube
LUT_3D_SIZE 5
0.000000 0.000000 0.000000
0.078172 0.000000 0.000992
0.319768 0.000000 0.011643
0.652308 0.000000 0.064195
0.893690 0.000000 0.119844
0.000000 0.143069 0.000000
0.176516 0.189654 0.000000
0.589197 0.200198 0.025055
0.993042 0.197559 0.128908
1.000000 0.277684 0.153887
0.000000 0.573602 0.000000
0.000000 0.650278 0.000000
0.642771 0.677150 0.000000
1.000000 0.693950 0.000000
1.000000 0.735470 0.000000
0.000000 0.993103 0.000000
0.000000 1.000000 0.000000
0.566537 1.000000 0.000000
1.000000 1.000000 0.000000
1.000000 1.000000 0.000000
0.000000 1.000000 0.107774
0.000000 1.000000 0.000000
0.595575 1.000000 0.000000
0.908873 1.000000 0.232471
1.000000 1.000000 0.578943
0.000000 0.000000 0.030976
0.133989 0.000000 0.119066
0.448768 0.000000 0.180316
0.804089 0.000000 0.210559
0.991821 0.000000 0.228763
0.000000 0.153231 0.150744
0.175006 0.175006 0.175006
0.656901 0.162203 0.196048
1.000000 0.151095 0.254734
1.000000 0.232334 0.315282
0.000000 0.616312 0.134340
0.000000 0.670848 0.022873
0.651026 0.683375 0.078447
1.000000 0.689403 0.227253
1.000000 0.717220 0.312093
0.000000 1.000000 0.146105
0.000000 1.000000 0.000000
0.489967 1.000000 0.000000
1.000000 1.000000 0.000000
1.000000 1.000000 0.398550
0.000000 1.000000 0.444923
0.000000 1.000000 0.313558
0.516686 1.000000 0.301472
0.890929 1.000000 0.508568
1.000000 1.000000 0.751873
0.000000 0.000000 0.165255
0.147784 0.000000 0.353643
0.520745 0.000000 0.482368
0.836301 0.000000 0.486091
1.000000 0.000000 0.452277
0.000000 0.000000 0.447959
0.000000 0.000000 0.573861
0.650919 0.000000 0.607294
1.000000 0.000000 0.610742
1.000000 0.000000 0.616999
0.000000 0.589837 0.583261
0.000000 0.624887 0.618494
0.631846 0.631846 0.631846
1.000000 0.633829 0.649531
1.000000 0.671962 0.685237
0.000000 1.000000 0.627741
0.000000 1.000000 0.617594
0.396002 1.000000 0.588678
0.993545 1.000000 0.619501
1.000000 0.985550 0.733104
0.000000 1.000000 0.698283
0.000000 1.000000 0.632990
0.512642 1.000000 0.647044
0.895521 1.000000 0.765057
1.000000 1.000000 0.903487
0.000000 0.000000 0.372900
0.000000 0.000000 0.631846
0.476188 0.000000 0.745769
0.770611 0.000000 0.717067
0.957153 0.000000 0.663340
0.000000 0.000000 0.777661
0.000000 0.000000 0.921431
0.578332 0.000000 0.955596
1.000000 0.000000 0.953857
1.000000 0.000000 0.910689
0.000000 0.424048 0.937407
0.000000 0.424475 1.000000
0.572076 0.441260 1.000000
1.000000 0.463645 1.000000
1.000000 0.579767 1.000000
0.000000 0.976364 0.966201
0.000000 1.000000 0.993912
0.297414 0.998352 0.991318
0.958053 0.958053 0.958053
1.000000 0.948379 0.949889
0.000000 1.000000 0.940642
0.000000 1.000000 0.910536
0.616541 1.000000 0.903197
0.920790 1.000000 0.935210
1.000000 1.000000 0.984268
0.000000 0.000000 0.567102
0.000000 0.000000 0.805936
0.357275 0.000000 0.892805
0.667491 0.000000 0.863127
0.891264 0.000000 0.830411
0.000000 0.000000 0.957473
0.000000 0.000000 1.000000
0.524498 0.000000 1.000000
0.939101 0.000000 1.000000
1.000000 0.000000 1.000000
0.000000 0.301137 1.000000
0.000000 0.421637 1.000000
0.585214 0.463737 1.000000
1.000000 0.520775 1.000000
1.000000 0.646738 1.000000
0.000000 0.955917 0.996780
0.000000 0.999573 0.994400
0.519600 0.968505 0.998383
0.948989 0.941283 1.000000
1.000000 0.950835 1.000000
0.000000 1.000000 0.994247
0.000000 1.000000 0.995438
0.758251 1.000000 0.997635
0.960510 1.000000 0.999527
1.000000 1.000000 1.000000
